X:178
T:Steirer
R:Steirer
C:traditionell
A:Bad Ischl, Salzkammergut
B:"Pfeifermusik aus Bad Ischl", Lois Blamberger, 3. Auflage, Bad Ischl 1990
S:im buch mit der Angabe: aus der Sammlung vom Blamberger Lois
N:im buch in D, nr. 10/1
Z:abc transcription Simon Wascher
M:3/4
L:1/8
K:C % Transposed from D
V:1
P:1
(Ge Ge) cz | (da da) fz | (Bf GBfB) | (cc' ge) cz |\
(Ge Ge) cz | (da da) fz | (Bf cB fB) | c4 z2 :|
V:2
(Ec Ec) Gz | (Bf Bf) dz | (Gd DGdG) | (Gg ec) Gz |\
(Ec Ec) Az | (Bf Bf) dz | (Gd AG Ad) | e4 z2 :|
